X: 181
T: Les Trois Grands Luthiers
C: J. Scott Skinner 1904
R: strathspey
Z: 2019 John Chambers <jc:trillian.mit.edu>
M: C
L: 1/16
K: A
|:\
"A"(E2FG) ({G}A3B) ("E7"AGFG) "A"(A2E2) | (E2FG) (A3c) ("B7"cBBF) "E"{F}G4 |\
"A"(E2FG) ({G}A3B) ("E7"AGFG) "A"(A2c2) | (e2A2) "D"(d2c{e}d) "E7"(B3A) "A"HA4 |
"A"(c2de) (A2Bc) ("E7"d2"A"c2) "E7"{c}B2"A"A2 | "E7"(G2AB) "A/e"(E2A2) "B7"(G2{E}F2) "E7"E3E |\
"A"(E2FG) "A"(A3B) "E7"(AG).F.G "A"(A2c2) | "A7"e2A2 "D"d2(c{d}d) "E7"B3A "A"HA4 |]
%%begintext align
%% To the immortal memory of Amati, Strativarius, and Guarnerius.
%% This melody is dedicated to Croall's famous quartett.
%% 16 Abercromby Place, Edinburgh.
%%endtext

%%sep 1 1 500

